X:966
T:Nameless Lassie, The
C:Joe Buchanan's Scottish Tome - Page 562.1
I:562 1
Z:Carl Allison
R:Waltz
L:1/4
M:3/4
K:G
D | "G"G2 F | E2 D | "C"E2 F | "D7"G2 A | "G"B2 G | "E7"c2 B | "Am"B3 | "D7"A2 D |
"G"G3 F | E2 D | "C"E2 F | G2 d/c/ | "G"B2 c | "D7"A2 G | "G"G3- | G2 G |
"G"d2 G | G2 G | "C"e2 d | "Am"c2 B | c2 B | "D7"A2 G | F2 A | d2 D |
"G"G2 F | E2 D | "C"E2 F | "D7"G2 A | "G"B2 G | "E7"c2 B | "Am"B3 | "D7"A2 D |
"G"d2 G | G2 G | "C"e2 d | "Am"c2 B | A2 E | "D7"F2 D | "G"G3- | G2 |]
W:Errata: Added chords to last line.

